X:68
T:St Thomas's Day. THO5.068
M:2/4
L:1/8
B:Thompson's Complete Collection of 200 Favourite Dances Vol.5
F:https://www.libraryofdance.org/manuals/1780c-Thompson-Compleat-5.pdf
Z:vmp. Peter Dunk 2024
Q:1/4=120
K:A
c2 (e/d/c/B/)|AGAB|c2 (e/d/c/B/)|AG A2:|
|:ecdf|dBce|cAGA|(B/A/G/F/) E2|
c2 (e/d/c/B/)|AGAB|c2 (e/d/c/B/)|AG A2:|
W:
W:Right hands across ./.
W:Left hands back again ./:
W:Lead down one Couple, up again and cast off :/.
W:Right and Left :/:

